**kern	**silbe	**harmony	**chordsym	**phrase	**timestamp	**leadinstrument
*ICvox	*	*M4/4	*M4/4	*	*	*
*B-:	*	*B-:	*B-:	*	*	*
*M4/4	*	*	*	*	*	*
*clefG2	*	*	*	*	*	*
r;	.	1r;	r	.	0	r
=1	=1	=1	=1	=1	=1	=1
*	*	*>A_intro	*>A_intro	*>A_intro	*>A_intro	*>A_intro
1r	.	2B-M	B-:maj (B- D F)	newline	0.209	piano
.	.	2B-MM	B-:maj7 (B- D F A)	.	.	piano
=2	=2	=2	=2	=2	=2	=2
1r	.	2A-M	A-:maj6 (B- A- C E- F)	.	.	piano
.	.	2B-MM	B-:maj7 (B- D F A)	.	.	piano
=3	=3	=3	=3	=3	=3	=3
1r	.	2B-M	B-:maj (B- D F)	newline	6.346	piano
.	.	2B-MM	B-:maj7 (B- D F A)	.	.	piano
=4	=4	=4	=4	=4	=4	=4
1r	.	2A-M	A-:maj6 (B- A- C E- F)	.	.	piano
.	.	2B-MM	B-:maj7 (B- D F A)	.	.	piano
=5	=5	=5	=5	=5	=5	=5
*	*	*>B_verse	*>B_verse	*>B_verse	*>B_verse	*>B_verse
2r	.	1Gm	G:min (G B- D)	newline	12.542	voice
8g	Oh	.	.	.	.	.
8[d	no	.	.	.	.	.
4d]	_	.	.	.	.	.
=6	=6	=6	=6	=6	=6	=6
4r	.	1Dm	D:min (D F A)	.	.	voice
8r	.	.	.	.	.	.
8f	do-	.	.	.	.	.
8g	-n't	.	.	.	.	.
4.d	go	.	.	.	.	.
=7	=7	=7	=7	=7	=7	=7
2.r	.	1E-M	E-:maj (E- G B-)	newline	18.62	voice
8G	it's	.	.	.	.	.
8G	ho-	.	.	.	.	.
=8	=8	=8	=8	=8	=8	=8
4B-	-urs	1B-M	B-:maj (B- D F)	.	.	voice
8c	til	.	.	.	.	.
8[d	dawn	.	.	.	.	.
8d]	_	.	.	.	.	.
8r	.	.	.	.	.	.
4r	.	.	.	.	.	.
=9	=9	=9	=9	=9	=9	=9
2r	.	1E-M	E-:maj (E- G B-)	newline	24.852	voice
6r	.	.	.	.	.	.
6G	and	.	.	.	.	.
6B-	there's	.	.	.	.	.
=10	=10	=10	=10	=10	=10	=10
8d	no	2.B-M	B-:maj (D B- F)	.	.	voice
8[f	one	.	.	.	.	.
4f]	_	.	.	.	.	.
4.r	.	.	.	.	.	.
.	.	4B-M	B-:maj (B- D F)	.	.	voice
8[f	who'd	.	.	.	.	.
=11	=11	=11	=11	=11	=11	=11
16f]	_	1Cm	C:min (C E- G)	newline	30.958	voice
8.e-	ra-	.	.	.	.	.
8d	-ther	.	.	.	.	.
8[c	be	.	.	.	.	.
4c_	_	.	.	.	.	.
8c]	_	.	.	.	.	.
16f	with	.	.	.	.	.
16[f	you	.	.	.	.	.
=12	=12	=12	=12	=12	=12	=12
4f]	_	2E-M	E-:maj (F E- G B-)	.	.	voice
4r	.	.	.	.	.	.
2r	.	2FM	F:maj (F A C)	.	.	voice
=13	=13	=13	=13	=13	=13	=13
2r	.	1Gm	G:min (G B- D)	newline	37.269	voice
8g	I	.	.	.	.	.
8[d	know	.	.	.	.	.
4d]	_	.	.	.	.	.
=14	=14	=14	=14	=14	=14	=14
2r	.	1Dm	D:min (D F A)	.	.	voice
8f	you	.	.	.	.	.
8[d	know	.	.	.	.	.
4d]	_	.	.	.	.	.
=15	=15	=15	=15	=15	=15	=15
2r	.	1E-M	E-:maj (E- G B-)	newline	43.584	voice
8r	.	.	.	.	.	.
16G	o-	.	.	.	.	.
16B-	-ther	.	.	.	.	.
8B-	girls	.	.	.	.	.
8[c	like	.	.	.	.	.
=16	=16	=16	=16	=16	=16	=16
8c]	_	1B-M	B-:maj (B- D F)	.	.	voice
8[d	me	.	.	.	.	.
4d]	_	.	.	.	.	.
2r	.	.	.	.	.	.
=17	=17	=17	=17	=17	=17	=17
2r	.	1E-M	E-:maj (E- G B-)	newline	49.88	voice
8r	.	.	.	.	.	.
8B-	I	.	.	.	.	.
16B-	let	.	.	.	.	.
16[B-	you	.	.	.	.	.
16B-]	_	.	.	.	.	.
16[B-	take	.	.	.	.	.
=18	=18	=18	=18	=18	=18	=18
16B-]	_	1B-M	B-:maj (D B- F)	.	.	voice
8.B-	my	.	.	.	.	.
4f	love	.	.	.	.	.
4r	.	.	.	.	.	.
8r	.	.	.	.	.	.
16f	kno-	.	.	.	.	.
16f	-wing	.	.	.	.	.
=19	=19	=19	=19	=19	=19	=19
6e-	you	1Cm	C:min (C E- G)	newline	56.105	voice
6d	don't	.	.	.	.	.
6[c	love	.	.	.	.	.
8c]	_	.	.	.	.	.
8f	_	.	.	.	.	.
4[f	me	.	.	.	.	.
=20	=20	=20	=20	=20	=20	=20
2f_	_	2E-M	E-:maj (F E- G B-)	.	.	voice
8f]	_	2FM	F:maj (F A C)	.	.	voice
8f	but	.	.	.	.	.
16f	if	.	.	.	.	.
16b-	_	.	.	.	.	.
8[a	I	.	.	.	.	.
=21	=21	=21	=21	=21	=21	=21
*	*	*>C_chorus	*>C_chorus	*>C_chorus	*>C_chorus	*>C_chorus
2a]	_	1B-MM	B-:maj7 (B- D F A)	newline	62.55	voice
8g	could	.	.	.	.	.
8a	reach	.	.	.	.	.
4[f	you	.	.	.	.	.
=22	=22	=22	=22	=22	=22	=22
8f]	_	1E-MM	E-:maj7 (E- G B- D)	.	.	voice
8d	some	.	.	.	.	.
2g	way	.	.	.	.	.
8r	.	.	.	.	.	.
16f	If	.	.	.	.	.
16[b-	I	.	.	.	.	.
=23	=23	=23	=23	=23	=23	=23
8b-]	_	1B-MM	B-:maj7 (B- D F A)	newline	69.05	voice
8[a	knew	.	.	.	.	.
8.a]	_	.	.	.	.	.
16g	the	.	.	.	.	.
4a	mag-	.	.	.	.	.
8f	-ic	.	.	.	.	.
8r	.	.	.	.	.	.
=24	=24	=24	=24	=24	=24	=24
8.r	.	1E-MM	E-:maj7 (E- G B- D)	.	.	voice
16[f	it	.	.	.	.	.
16f]	_	.	.	.	.	.
16B-	would	.	.	.	.	.
16[g	take	.	.	.	.	.
16g_	_	.	.	.	.	.
8g]	_	.	.	.	.	.
8r	.	.	.	.	.	.
8.r	.	.	.	.	.	.
16d	to	.	.	.	.	.
=25	=25	=25	=25	=25	=25	=25
8.f	love	1Dm	D:min (D F A)	newline	75.366	voice
16[f	you	.	.	.	.	.
4f]	_	.	.	.	.	.
8r	.	.	.	.	.	.
16d	good	.	.	.	.	.
16e-	en-	.	.	.	.	.
8f	-ough	.	.	.	.	.
8r	.	.	.	.	.	.
=26	=26	=26	=26	=26	=26	=26
8r	.	1Gm	G:min (G B- D)	.	.	voice
16d	on	.	.	.	.	.
16c	the	.	.	.	.	.
16d	out-	.	.	.	.	.
8B-	_	.	.	.	.	.
16[B-	-side	.	.	.	.	.
4B-]	_	.	.	.	.	.
4r	.	.	.	.	.	.
=27	=27	=27	=27	=27	=27	=27
16r	.	1Dm	D:min (D F A)	newline	81.618	voice
16d	and	.	.	.	.	.
8[f	make	.	.	.	.	.
8f]	_	.	.	.	.	.
16f	you	.	.	.	.	.
16f	feel	.	.	.	.	.
16g	_	.	.	.	.	.
16f	_	.	.	.	.	.
8f	it	.	.	.	.	.
4r	.	.	.	.	.	.
=28	=28	=28	=28	=28	=28	=28
8r	.	1Gm	G:min (G B- D)	.	.	voice
16d	on	.	.	.	.	.
16c	the	.	.	.	.	.
16d	in-	.	.	.	.	.
8B-	_	.	.	.	.	.
16[B-	-side	.	.	.	.	.
4B-]	_	.	.	.	.	.
4r	.	.	.	.	.	.
=29	=29	=29	=29	=29	=29	=29
8c	may-	1Cm	C:min (C E- G)	newline	87.897	voice
16d	-be	.	.	.	.	.
16d	I	.	.	.	.	.
4e-	_	.	.	.	.	.
8d	could	.	.	.	.	.
8c	make	.	.	.	.	.
8B-	you	.	.	.	.	.
8[c	stay	.	.	.	.	.
=30	=30	=30	=30	=30	=30	=30
2c]	_	2E-M	E-:maj (F E- G B-)	.	.	voice
2r	.	2FM	F:maj (F A C)	.	.	voice
=31	=31	=31	=31	=31	=31	=31
*	*	*>A_trans	*>A_trans	*>A_trans	*>A_trans	*>A_trans
8r	.	2B-M	B-:maj (B- D F)	newline	94.181	piano
16f	If	.	.	.	.	.
16[f	I	.	.	.	.	.
4f_	_	.	.	.	.	.
8f]	_	2B-MM	B-:maj7 (B- D F A)	.	.	piano
8d	could	.	.	.	.	.
16c	reach	.	.	.	.	.
16[d	_	.	.	.	.	.
8d]	_	.	.	.	.	.
=32	=32	=32	=32	=32	=32	=32
8d	you	2A-M	A-:maj6 (B- A- C E- F)	.	.	piano
8r	.	.	.	.	.	.
4r	.	.	.	.	.	.
2r	.	2B-MM	B-:maj7 (B- D F A)	.	.	piano
=33	=33	=33	=33	=33	=33	=33
1r	.	2B-M	B-:maj (B- D F)	newline	100.439	piano
.	.	2B-MM	B-:maj7 (B- D F A)	.	.	piano
=34	=34	=34	=34	=34	=34	=34
1r	.	2A-M	A-:maj6 (B- A- C E- F)	.	.	piano
.	.	2B-MM	B-:maj7 (B- D F A)	.	.	piano
=35	=35	=35	=35	=35	=35	=35
*	*	*>B_verse	*>B_verse	*>B_verse	*>B_verse	*>B_verse
2r	.	1Gm	G:min (G B- D)	newline	106.584	voice
8g	the	.	.	.	.	.
8[d	dark	.	.	.	.	.
4d]	_	.	.	.	.	.
=36	=36	=36	=36	=36	=36	=36
4r	.	1Dm	D:min (D F A)	.	.	voice
8r	.	.	.	.	.	.
16r	.	.	.	.	.	.
16d	is	.	.	.	.	.
16f	get-	.	.	.	.	.
16[g	-ting	.	.	.	.	.
16g]	_	.	.	.	.	.
4d	light	.	.	.	.	.
16r	.	.	.	.	.	.
=37	=37	=37	=37	=37	=37	=37
2.r	.	1E-M	E-:maj (E- G B-)	newline	112.907	voice
8G	and	.	.	.	.	.
8G	you're	.	.	.	.	.
=38	=38	=38	=38	=38	=38	=38
8B-	dressed	1B-M	B-:maj (B- D F)	.	.	voice
8c	to	.	.	.	.	.
16c	go	.	.	.	.	.
16[d	_	.	.	.	.	.
8d_	_	.	.	.	.	.
8d]	_	.	.	.	.	.
8r	.	.	.	.	.	.
4r	.	.	.	.	.	.
=39	=39	=39	=39	=39	=39	=39
2r	.	1E-M	E-:maj (E- G B-)	newline	119.28	voice
8r	.	.	.	.	.	.
8B-	and	.	.	.	.	.
16B-	ne-	.	.	.	.	.
16[B-	-ver	.	.	.	.	.
16B-]	_	.	.	.	.	.
16[B-	said	.	.	.	.	.
=40	=40	=40	=40	=40	=40	=40
16B-]	_	1B-M	B-:maj (D B- F)	.	.	voice
16[B-	a	.	.	.	.	.
8B-]	_	.	.	.	.	.
4[f	word	.	.	.	.	.
4f]	_	.	.	.	.	.
16r	.	.	.	.	.	.
16f	a-	.	.	.	.	.
8[e-	-bout	.	.	.	.	.
=41	=41	=41	=41	=41	=41	=41
16e-]	_	1Cm	C:min (C E- G)	newline	125.513	voice
16d	to-	.	.	.	.	.
8[c	-mor-	.	.	.	.	.
4c]	_	.	.	.	.	.
2[f	-row	.	.	.	.	.
=42	=42	=42	=42	=42	=42	=42
4.f]	_	2E-M	E-:maj (F E- G B-)	.	.	voice
8f	but	.	.	.	.	.
4cc	if	2FM	F:maj (F A C)	.	.	voice
4[a	I	.	.	.	.	.
=43	=43	=43	=43	=43	=43	=43
*	*	*>C_chorus	*>C_chorus	*>C_chorus	*>C_chorus	*>C_chorus
4.a]	_	1B-MM	B-:maj7 (B- D F A)	newline	131.972	voice
8g	could	.	.	.	.	.
8a	reach	.	.	.	.	.
8[f	you	.	.	.	.	.
4f_	_	.	.	.	.	.
=44	=44	=44	=44	=44	=44	=44
8f]	_	1E-MM	E-:maj7 (E- G B- D)	.	.	voice
8d	some	.	.	.	.	.
2g	way	.	.	.	.	.
16r	.	.	.	.	.	.
16f	If	.	.	.	.	.
8[b-	I	.	.	.	.	.
=45	=45	=45	=45	=45	=45	=45
8b-]	_	1B-MM	B-:maj7 (B- D F A)	newline	138.529	voice
8[a	knew	.	.	.	.	.
8.a]	_	.	.	.	.	.
16g	the	.	.	.	.	.
4a	mag-	.	.	.	.	.
8f	-ic	.	.	.	.	.
8r	.	.	.	.	.	.
=46	=46	=46	=46	=46	=46	=46
16r	.	1E-MM	E-:maj7 (E- G B- D)	.	.	voice
16[f	it	.	.	.	.	.
16f]	_	.	.	.	.	.
16B-	would	.	.	.	.	.
16[g	take	.	.	.	.	.
16g_	_	.	.	.	.	.
8g]	_	.	.	.	.	.
4..r	.	.	.	.	.	.
16d	to	.	.	.	.	.
=47	=47	=47	=47	=47	=47	=47
8f	love	1Dm	D:min (D F A)	newline	144.88	voice
8[f	you	.	.	.	.	.
4f]	_	.	.	.	.	.
16d	good	.	.	.	.	.
8e-	en-	.	.	.	.	.
16f	-ough	.	.	.	.	.
4r	.	.	.	.	.	.
=48	=48	=48	=48	=48	=48	=48
8r	.	1Gm	G:min (G B- D)	.	.	voice
16d	on	.	.	.	.	.
16c	the	.	.	.	.	.
16d	out-	.	.	.	.	.
8B-	_	.	.	.	.	.
16[B-	-side	.	.	.	.	.
4B-]	_	.	.	.	.	.
4r	.	.	.	.	.	.
=49	=49	=49	=49	=49	=49	=49
8r	.	1Dm	D:min (D F A)	newline	151.288	voice
16d	and	.	.	.	.	.
8f	make	.	.	.	.	.
16f	you	.	.	.	.	.
16b-	feel-	.	.	.	.	.
16f	_	.	.	.	.	.
16g	_	.	.	.	.	.
16f	_	.	.	.	.	.
8f	-it	.	.	.	.	.
8r	.	.	.	.	.	.
8r	.	.	.	.	.	.
=50	=50	=50	=50	=50	=50	=50
8r	.	1Gm	G:min (G B- D)	.	.	voice
16d	on	.	.	.	.	.
16c	the	.	.	.	.	.
16d	in-	.	.	.	.	.
16B-	_	.	.	.	.	.
8B-	-side	.	.	.	.	.
2r	.	.	.	.	.	.
=51	=51	=51	=51	=51	=51	=51
8c	may-	2Cm	C:min (C E- G)	newline	157.613	voice
16d	-be	.	.	.	.	.
16d	I	.	.	.	.	.
4e-	_	.	.	.	.	.
8e-	could	2Cm	C:minmaj7 (C E- G B)	.	.	voice
8[f	make	.	.	.	.	.
8f]	_	.	.	.	.	.
8f	you	.	.	.	.	.
=52	=52	=52	=52	=52	=52	=52
16d	stay	2E-M	E-:maj (F E- G B-)	.	.	voice
8.[c	_	.	.	.	.	.
2.c]	_	.	.	.	.	.
.	.	2FM	F:maj (F A C)	.	.	voice
=53	=53	=53	=53	=53	=53	=53
*	*	*>A2_outro	*>A2_outro	*>A2_outro	*>A2_outro	*>A2_outro
2r	.	1B-MM	B-:maj7 (B- D F A)	newline	163.982	voice
16r	.	.	.	.	.	.
16f	see	.	.	.	.	.
16d	you	.	.	.	.	.
16[c	next	.	.	.	.	.
8c]	_	.	.	.	.	.
8[d	time	.	.	.	.	.
=54	=54	=54	=54	=54	=54	=54
4d]	_	1E-MM	E-:maj7 (E- G B- D)	.	.	voice
4r	.	.	.	.	.	.
2r	.	.	.	.	.	.
=55	=55	=55	=55	=55	=55	=55
8r	.	1B-MM	B-:maj7 (B- D F A)	newline	170.305	voice
8[b-	I'll	.	.	.	.	.
8b-]	_	.	.	.	.	.
16a	see-	.	.	.	.	.
16[g	-ya	.	.	.	.	.
4g]	_	.	.	.	.	.
4r	.	.	.	.	.	.
=56	=56	=56	=56	=56	=56	=56
8r	.	1E-MM	E-:maj7 (E- G B- D)	.	.	voice
8a	next	.	.	.	.	.
4f	time	.	.	.	.	.
2r	.	.	.	.	.	.
=57	=57	=57	=57	=57	=57	=57
1r	.	1B-M	B-:maj (B- D F)	newline	177.582	voice
r;	.	1r;	r	.	184.645	r
r;	.	1r;	r	.	189.283	r
*-	*-	*-	*-	*-	*-	*-
!!!BillboardChartDate: 1972/09/23
!!!BillboardPeak: 10
!!!BillboardWeeksOnChart: 15
!!!COC: The 5th Dimension
!!!ENC: Nathaniel Condit-Schultz
!!!EST: Awating manual error checking and editing.
!!!OTL: If I Could Reach You
!!!RDF**chordsym: original McGill chord annotation + (implied pitch class set, with bass pitch in first position)
!!!RDF**harmony: **recip + pitch class of root + harmonic quality
!!!RDF**leadinstrument: original McGill primary instrumentation annotation
!!!RDF**phrase: newline = linebreak in original McGill transcription
!!!RDF**timestamp: McGill audio timestamp in seconds
!!!RDT: 2017/01/12/
!!!SampleActualRank: 47
!!!SampleID#: 0433
!!!SampleTargetRank: 47
